public/img/logo-pavigres.svg

<?xml version="1.0" encoding="UTF-8"?>
<svg xmlns="http://www.w3.org/2000/svg" xmlns:xlink="http://www.w3.org/1999/xlink" width="220px" height="70px" viewBox="0 0 217 70" version="1.1">
<g id="surface1">
<path style=" stroke:none;fill-rule:nonzero;fill:rgb(0%,0%,0%);fill-opacity:1;" d="M 128.335938 58.609375 C 128.335938 61.539062 130.332031 63.253906 132.953125 63.253906 C 135.550781 63.253906 137.5625 61.53125 137.5625 58.609375 C 137.5625 55.675781 135.550781 53.960938 132.953125 53.960938 C 130.332031 53.960938 128.335938 55.675781 128.335938 58.609375 M 136.179688 58.609375 C 136.179688 60.777344 134.886719 62.222656 132.945312 62.222656 C 131 62.222656 129.710938 60.769531 129.710938 58.609375 C 129.710938 56.4375 131 54.992188 132.945312 54.992188 C 134.886719 54.992188 136.179688 56.4375 136.179688 58.609375 M 118.863281 55.117188 C 120.40625 55.117188 120.9375 55.859375 120.9375 56.996094 C 120.9375 58.160156 120.40625 58.886719 118.863281 58.886719 L 116.746094 58.886719 L 116.746094 55.117188 Z M 115.4375 54.101562 L 115.4375 63.097656 L 116.753906 63.097656 L 116.753906 59.894531 L 119.113281 59.894531 C 121.398438 59.894531 122.269531 58.722656 122.269531 56.996094 C 122.269531 55.300781 121.398438 54.101562 119.113281 54.101562 Z M 100.777344 59.210938 C 100.777344 62.109375 102.320312 63.226562 104.5625 63.226562 C 106.792969 63.226562 108.335938 62.109375 108.335938 59.210938 L 108.335938 54.101562 L 107.035156 54.101562 L 107.035156 59.210938 C 107.035156 61.433594 106.070312 62.222656 104.5625 62.222656 C 103.042969 62.222656 102.078125 61.433594 102.078125 59.210938 L 102.078125 54.101562 L 100.777344 54.101562 Z M 90.453125 55.117188 C 91.976562 55.117188 92.527344 55.765625 92.527344 56.777344 C 92.527344 57.765625 91.984375 58.433594 90.453125 58.433594 L 88.332031 58.433594 L 88.332031 55.117188 Z M 87.027344 54.101562 L 87.027344 63.097656 L 88.34375 63.097656 L 88.34375 59.414062 L 90.617188 59.414062 L 92.960938 63.097656 L 94.375 63.097656 L 91.863281 59.28125 C 93.273438 58.964844 93.859375 58.019531 93.859375 56.789062 C 93.859375 55.222656 92.980469 54.101562 90.703125 54.101562 Z M 73.753906 58.625 C 73.753906 56.402344 75.199219 54.976562 77.265625 54.976562 C 78.164062 54.976562 79.113281 55.265625 79.628906 55.5625 L 79.828125 54.574219 C 79.289062 54.277344 78.355469 53.960938 77.171875 53.960938 C 74.425781 53.960938 72.367188 55.683594 72.367188 58.609375 C 72.367188 61.546875 74.449219 63.253906 77.195312 63.253906 C 78.582031 63.253906 79.425781 62.914062 79.96875 62.578125 L 79.96875 58.34375 L 78.757812 58.34375 L 78.757812 61.949219 C 78.382812 62.109375 77.839844 62.246094 77.300781 62.246094 C 75.242188 62.246094 73.753906 60.847656 73.753906 58.625 "/>
<path style=" stroke:none;fill-rule:nonzero;fill:rgb(0%,0%,0%);fill-opacity:1;" d="M 50.222656 28.910156 L 41.132812 28.910156 L 45.527344 17.324219 Z M 56.890625 37.144531 L 47.617188 14 L 43.425781 14 L 34.164062 37.144531 L 37.65625 37.144531 L 40.191406 31.378906 L 51.140625 31.378906 L 53.429688 37.144531 Z M 56.890625 37.144531 "/>
<path style=" stroke:none;fill-rule:nonzero;fill:rgb(0%,0%,0%);fill-opacity:1;" d="M 67.128906 14 L 63.636719 14 L 72.5 37.144531 L 76.691406 37.144531 L 85.511719 14 L 82.058594 14 L 74.589844 33.820312 Z M 67.128906 14 "/>
<path style=" stroke:none;fill-rule:nonzero;fill:rgb(0%,0%,0%);fill-opacity:1;" d="M 94.652344 14 L 98.035156 14 L 98.035156 37.144531 L 94.652344 37.144531 Z M 94.652344 14 "/>
<path style=" stroke:none;fill-rule:nonzero;fill:rgb(0%,0%,0%);fill-opacity:1;" d="M 111.246094 25.628906 C 111.246094 19.90625 114.957031 16.25 120.292969 16.25 C 122.609375 16.25 125.03125 16.984375 126.355469 17.761719 L 126.871094 15.214844 C 125.476562 14.445312 123.089844 13.632812 120.039062 13.632812 C 112.980469 13.632812 107.679688 18.058594 107.679688 25.59375 C 107.679688 33.164062 113.050781 37.554688 120.109375 37.554688 C 123.671875 37.554688 125.84375 36.671875 127.238281 35.824219 L 127.238281 25.128906 L 124.117188 25.128906 L 124.117188 34.1875 C 123.160156 34.589844 121.765625 34.964844 120.359375 34.964844 C 115.070312 34.964844 111.246094 31.351562 111.246094 25.628906 "/>
<path style=" stroke:none;fill-rule:nonzero;fill:rgb(0%,0%,0%);fill-opacity:1;" d="M 151.71875 20.894531 C 151.71875 23.441406 150.324219 25.148438 146.382812 25.148438 L 140.9375 25.148438 L 140.9375 16.617188 L 146.382812 16.617188 C 150.324219 16.617188 151.71875 18.277344 151.71875 20.894531 M 155.132812 20.894531 C 155.132812 16.871094 152.859375 13.992188 147.011719 13.992188 L 137.5625 13.992188 L 137.5625 37.136719 L 140.945312 37.136719 L 140.945312 27.648438 L 146.792969 27.648438 L 152.824219 37.136719 L 156.457031 37.136719 L 149.992188 27.316406 C 153.625 26.511719 155.132812 24.078125 155.132812 20.894531 "/>
<path style=" stroke:none;fill-rule:nonzero;fill:rgb(0%,0%,0%);fill-opacity:1;" d="M 168.9375 26.320312 L 180.265625 26.320312 L 180.265625 23.738281 L 168.9375 23.738281 L 168.9375 16.617188 L 181.660156 16.617188 L 181.660156 14 L 165.566406 14 L 165.566406 37.144531 L 181.660156 37.144531 L 181.660156 34.527344 L 168.9375 34.527344 Z M 168.9375 26.320312 "/>
<path style=" stroke:none;fill-rule:nonzero;fill:rgb(0%,0%,0%);fill-opacity:1;" d="M 190.253906 35.777344 C 192.164062 36.882812 194.996094 37.511719 197.828125 37.511719 C 202.5 37.511719 207.023438 35.628906 207.023438 30.90625 C 207.023438 22.925781 194.078125 25.367188 194.078125 19.792969 C 194.078125 17.359375 196.546875 16.355469 199.300781 16.355469 C 201.46875 16.355469 204.039062 16.949219 205.695312 17.9375 L 206.246094 15.390625 C 204.40625 14.324219 201.652344 13.660156 198.933594 13.660156 C 194.699219 13.660156 190.628906 15.425781 190.628906 20.039062 C 190.628906 28.167969 203.570312 25.875 203.570312 31.113281 C 203.570312 33.695312 200.738281 34.84375 197.574219 34.84375 C 195.222656 34.84375 192.652344 34.292969 190.777344 33.214844 Z M 190.253906 35.777344 "/>
<path style=" stroke:none;fill-rule:nonzero;fill:rgb(100%,21.176471%,0%);fill-opacity:1;" d="M 174.054688 5.589844 L 171.5625 10.605469 L 174.347656 10.605469 L 177.285156 5.589844 Z M 174.054688 5.589844 "/>
<path style=" stroke:none;fill-rule:nonzero;fill:rgb(0%,0%,0%);fill-opacity:1;" d="M 12.742188 26.320312 L 12.742188 16.617188 L 18.1875 16.617188 C 22.160156 16.617188 23.519531 18.53125 23.519531 21.453125 C 23.519531 24.449219 22.160156 26.328125 18.1875 26.328125 M 26.9375 21.453125 C 26.9375 17.097656 24.699219 14 18.816406 14 L 9.359375 14 L 9.359375 26.003906 L 1.691406 26.003906 L 1.691406 28.585938 L 9.359375 28.585938 L 9.359375 37.144531 L 12.742188 37.144531 L 12.742188 28.910156 L 18.808594 28.910156 C 24.699219 28.910156 26.9375 25.882812 26.9375 21.453125 "/>
<path style=" stroke:none;fill-rule:nonzero;fill:rgb(0%,0%,0%);fill-opacity:1;" d="M 214.160156 16.125 C 214.160156 15.609375 213.863281 15.269531 213.042969 15.269531 L 212.015625 15.269531 L 212.015625 18.226562 L 212.519531 18.226562 L 212.519531 17 L 213.027344 17 L 213.75 18.226562 L 214.261719 18.226562 L 213.515625 16.941406 C 213.957031 16.859375 214.160156 16.527344 214.160156 16.125 M 213.644531 16.136719 C 213.644531 16.40625 213.488281 16.589844 213.042969 16.589844 L 212.511719 16.589844 L 212.511719 15.671875 L 213.042969 15.671875 C 213.488281 15.679688 213.644531 15.871094 213.644531 16.136719 "/>
<path style=" stroke:none;fill-rule:nonzero;fill:rgb(0%,0%,0%);fill-opacity:1;" d="M 216.078125 13.683594 L 210.035156 13.683594 L 210.035156 19.773438 L 216.078125 19.773438 Z M 215.519531 19.222656 L 210.578125 19.222656 L 210.578125 14.234375 L 215.519531 14.234375 Z M 215.519531 19.222656 "/>
</g>
</svg>

<svg xmlns="http://www.w3.org/2000/svg" width="220" height="70" viewBox="0 0 217 70"><path d="M128.336 58.61c0 2.93 1.996 4.644 4.617 4.644 2.598 0 4.61-1.723 4.61-4.645 0-2.933-2.012-4.648-4.61-4.648-2.621 0-4.617 1.715-4.617 4.648m7.844 0c0 2.168-1.293 3.614-3.235 3.614-1.945 0-3.234-1.453-3.234-3.614 0-2.172 1.289-3.617 3.234-3.617 1.942 0 3.235 1.446 3.235 3.617m-17.317-3.492c1.543 0 2.075.742 2.075 1.88 0 1.163-.532 1.89-2.075 1.89h-2.117v-3.77Zm-3.425-1.015v8.996h1.316v-3.203h2.36c2.284 0 3.156-1.172 3.156-2.899 0-1.695-.872-2.894-3.157-2.894Zm-14.66 5.109c0 2.898 1.542 4.016 3.784 4.016 2.231 0 3.774-1.118 3.774-4.016V54.1h-1.3v5.11c0 2.223-.966 3.012-2.474 3.012-1.519 0-2.484-.79-2.484-3.012V54.1h-1.3Zm-10.325-4.094c1.524 0 2.074.649 2.074 1.66 0 .989-.543 1.657-2.074 1.657h-2.121v-3.317Zm-3.426-1.015v8.996h1.317v-3.684h2.273l2.344 3.684h1.414l-2.512-3.817c1.41-.316 1.996-1.261 1.996-2.492 0-1.566-.879-2.687-3.156-2.687Zm-13.273 4.523c0-2.223 1.445-3.648 3.512-3.648.898 0 1.847.289 2.363.586l.2-.989c-.54-.297-1.474-.613-2.657-.613-2.746 0-4.805 1.723-4.805 4.648 0 2.938 2.082 4.645 4.828 4.645 1.387 0 2.23-.34 2.774-.676v-4.234h-1.211v3.605c-.375.16-.918.297-1.457.297-2.059 0-3.547-1.398-3.547-3.621M50.223 28.91h-9.09l4.394-11.586Zm6.668 8.235L47.617 14h-4.191l-9.262 23.145h3.492l2.535-5.766h10.95l2.289 5.766ZM67.129 14h-3.492L72.5 37.145h4.191L85.511 14H82.06l-7.47 19.82Zm27.523 0h3.383v23.145h-3.383Zm16.594 11.629c0-5.723 3.711-9.379 9.047-9.379 2.316 0 4.738.734 6.062 1.512l.516-2.547c-1.394-.77-3.781-1.582-6.832-1.582-7.059 0-12.36 4.426-12.36 11.96 0 7.571 5.372 11.962 12.43 11.962 3.563 0 5.735-.883 7.13-1.73V25.128h-3.122v9.058c-.957.403-2.351.778-3.758.778-5.289 0-9.113-3.613-9.113-9.336m40.473-4.733c0 2.546-1.395 4.253-5.336 4.253h-5.446v-8.53h5.446c3.941 0 5.336 1.66 5.336 4.277m3.414 0c0-4.024-2.274-6.903-8.121-6.903h-9.45v23.145h3.383v-9.489h5.848l6.031 9.489h3.633l-6.465-9.82c3.633-.805 5.14-3.239 5.14-6.422m13.806 5.425h11.328v-2.582h-11.328v-7.12h12.722V14h-16.094v23.145h16.094v-2.618h-12.722Zm21.316 9.457c1.91 1.106 4.742 1.735 7.574 1.735 4.672 0 9.195-1.883 9.195-6.606 0-7.98-12.945-5.539-12.945-11.113 0-2.434 2.469-3.438 5.223-3.438 2.168 0 4.738.594 6.394 1.582l.551-2.546c-1.84-1.067-4.594-1.73-7.312-1.73-4.235 0-8.305 1.765-8.305 6.378 0 8.129 12.941 5.836 12.941 11.074 0 2.582-2.832 3.73-5.996 3.73-2.351 0-4.922-.55-6.797-1.628Zm0 0"/><path fill="#ff3600" d="m174.055 5.59-2.493 5.015h2.786l2.937-5.015Zm0 0"/><path d="M12.742 26.32v-9.703h5.445c3.973 0 5.333 1.914 5.333 4.836 0 2.996-1.36 4.875-5.332 4.875m8.75-4.875c0-4.355-2.239-7.453-8.122-7.453H9.36v12.004H1.691v2.582H9.36v8.559h3.383V28.91h6.067c5.89 0 8.128-3.027 8.128-7.457m187.222-5.328c0-.516-.297-.855-1.117-.855h-1.027v2.957h.504V17h.507l.723 1.227h.512l-.746-1.286c.441-.082.644-.414.644-.816m-.515.012c0 .27-.157.453-.602.453h-.531v-.918h.531c.445.008.602.2.602.465"/><path d="M216.078 13.684h-6.043v6.09h6.043Zm-.558 5.539h-4.942v-4.989h4.942Zm0 0"/></svg>
